X:1
T:Title
%%score ( 1 2 ) ( 3 4 )
L:1/8
Q:1/4=90
M:4/4
K:G
V:1 treble nm="Choir Aahs, Treble"
V:2 treble 
V:3 bass nm="Choir Aahs, Bass"
V:4 bass 
V:1
 z4 z2 [GB]2 | [GB]3 [GB] [GB][GB][GB][GB] | [Fd]6 cA | [EG]3 [EG] [EG][EG][EG][EG] | [^DB]6 GF | %5
w: 1.~As~|far~ a bove~ the~ howl ing~|storm,~ Se *|cure~ from~ dan ger's~ reach~ and~|harm,~ * *|
 E3 [CE] [CE][CE][CE][CE] | [DG]6 [GB]2 | [FA]3 [FA] [Fd][Fd][G^c][Gc] | [Fd]6 [Ac]2 | %9
w: * phant ly~ the~ ea gle~|flies�~ My~|soul~ on~ wings~ of~ faith~ would~|rise;~ When~|
 [GB]3 [GB] [GB][GB][GB][GB] | [Fd]6 cA | [EG]3 [EG] [EG][EG][EG][EG] | [^DB]6 GF | %13
w: rag ing~ is~ the~ tem pest's~|blast,~ Ere~ *|yet~ its~ wrath~ is~ ov er|past�~ My~ *|
 E3 E [EG][EG][Ge][Ge] | [Gd]6 [Gc]2 | %15
w: soul~ would~ rise~ from~ earth ly~|woe,~ To~|
 [GB]3 [FA] [DG][DA][DG][DF][Q:1/4=89][Q:1/4=87][Q:1/4=86][Q:1/4=85][Q:1/4=83][Q:1/4=82][Q:1/4=81][Q:1/4=79][Q:1/4=78][Q:1/4=77][Q:1/4=75][Q:1/4=74][Q:1/4=72][Q:1/4=71][Q:1/4=70][Q:1/4=68][Q:1/4=67] | %16
w: leave~ the~ storm y~ winds~ be|
 [DG]6 z2 |] %17
w: low.~|
V:2
 x8 | x8 | z4 z2 F2 | x8 | z4 z2 ^D2 | x8 | x8 | x8 | x8 | x8 | z4 z2 F2 | x8 | z4 z2 ^D2 | x8 | %14
 x8 | x8 | x8 |] %17
V:3
 z4 z2 [G,D]2 | [G,D]3 [G,D] [G,D][G,D][G,D][G,D] | [D,D]6 A,C | %3
 [E,B,]3 [E,B,] [E,B,][E,B,][E,B,][E,B,] | [B,,B,]6 B,A, | %5
 [C,G,]3 [C,G,] [C,G,][C,G,][C,G,][C,G,] | [G,,B,]6 [G,D]2 | [A,D]3 [A,D] A,A,[A,,A,][A,,A,] | %8
 [D,A,]6 [F,D]2 | [G,D]3 [G,D] [G,D][G,D][G,D][G,D] | [D,D]6 A,C | %11
 [E,B,]3 [E,B,] [E,B,][E,B,][E,B,][E,B,] | [B,,B,]6 [B,,A,]2 | %13
 [E,G,]3 [E,G,] [E,B,][E,B,][C,C][C,C] | [G,B,]6 [C,E]2 | [D,D]3 [D,C] [D,B,][D,C][D,B,][D,A,] | %16
 [G,,B,]6 z2 |] %17
V:4
 x8 | x8 | z4 z2 D,2 | x8 | z4 z2 B,,2 | x8 | x8 | x8 | x8 | x8 | z4 z2 D,2 | x8 | x8 | x8 | x8 | %15
 x8 | x8 |] %17

